.icons/Gruvbox-Plus-Dark/apps/16/mame.svg

<svg width="16" height="16" version="1.1" xmlns="http://www.w3.org/2000/svg">
  <defs>
    <style id="current-color-scheme" type="text/css">.ColorScheme-Text { color:#ebdbb2; } .ColorScheme-Highlight { color:#458588; }</style>
  </defs>
  <path class="ColorScheme-Text" d="m10.65 2.674-10.65 10.65h4.205l4.765-4.765v4.765l4.485-4.485v4.485l2.545-2.545-0.022-8.107-5.326 5.326v-5.326z" fill="currentColor"/>
</svg>

<svg width="16" height="16" version="1.1" xmlns="http://www.w3.org/2000/svg">
  <defs>
    <style type="text/css" id="current-color-scheme">.ColorScheme-Text { color:#ebdbb2; } .ColorScheme-Highlight { color:#458588; }</style>
  </defs>
  <path class="ColorScheme-Text" fill="currentColor" d="M 10.652 2.674 L 0 13.326 L 4.205 13.326 L 8.97 8.561 L 8.97 13.326 L 13.455 8.841 L 13.455 13.326 L 16 10.781 L 15.978 2.674 L 10.652 8 L 10.652 2.674 Z"/>
</svg>
